X:576
T:
S:Polka eller schottis. Handlanden Johan Boklund i Hemse har spelat den så för samlaren.
R:polka
O:Gotland, Hemse
  samlaren
M:2/4
L:1/16
K:C
G2e2 edc2|A2f2 fefg|a2g2 g2d2|f2e2 edc2|G2e2 edc2|A2f2 fefg|a2g2 g2B2|d2cc
c2 z2::c'2ef g2c2|Bcde f4|a2Bc d2G2|cdef g4|c'2ef g2c2|Bcde f4|fadf
egBd|c2c2 c2 z2:|

